X:17
T:Soldier’s Joy. TJD.17
M:2/4
L:1/16
Q:1/4=100
S:T.J.Dixon MS1, Lincolnshire, 1798
R:.hornpipe
A:Lincolnshire, Holton le Moor
Z:Vmp.R.Greig2010
K:D
(FG)|AFDF AFDF|A2d2 d2cB|AFDF AFDF|G2E2 E2FG|!
AFDF AFDF|A2d2 d2fg|afdf gece|d2d2d4::!
ag|f2f2 fagf|e2e2 egfe|f2f2 fagf|edcB A2g2|!
f2f2 fagf|e2e2 egfe|fafd egec|d2d2d4:|]

